public/cards/2-D.svg

<?xml version="1.0" encoding="UTF-8"?>
<svg width="360px" height="540px" viewBox="0 0 360 540" version="1.1" xmlns="http://www.w3.org/2000/svg" xmlns:xlink="http://www.w3.org/1999/xlink">
    <!-- Generator: Sketch 55.2 (78181) - https://sketchapp.com -->
    <title>2-D</title>
    <desc>Created with Sketch.</desc>
    <g id="Page-1" stroke="none" stroke-width="1" fill="none" fill-rule="evenodd">
        <g id="English_pattern_playing_cards_deck" transform="translate(-390.000000, -1141.000000)" fill-rule="nonzero">
            <g id="2-D" transform="translate(390.000000, 1140.637820)">
                <rect id="rect6472-17" stroke="#000000" stroke-width="0.99999976" fill="#FFFFFF" x="0.5" y="0.86218" width="359" height="539" rx="29.944447"></rect>
                <path d="M30,30.36208 C24.46,30.36208 20,34.82208 20,40.36208 L20,45.36208 L25,45.36208 L25,40.36208 C25,37.59208 27.23,35.36208 30,35.36208 C32.77,35.36208 35,37.59208 35,40.36208 L35,45.36208 C35,46.48958 34.62492,48.42748 34,49.26208 C29.53673,58.36623 24.72176,66.39073 20,75.36208 L20,80.36208 L30,80.36208 L40,80.36208 L40,75.36208 L40,70.36208 L35,70.36208 L35,75.36208 L30,75.36208 L25.5,75.36208 C29.98873,67.44664 33.71831,59.79024 38,51.76208 C39.25012,50.09278 40,47.61728 40,45.36208 L40,40.36208 C40,34.82208 35.54,30.36208 30,30.36208 Z" id="rect3163-52-9-8-1-38-3" fill="#FF5555"></path>
                <path d="M330,510.3622 C335.54,510.3622 340,505.9022 340,500.3622 L340,495.3622 L335,495.3622 L335,500.3622 C335,503.1322 332.77,505.3622 330,505.3622 C327.23,505.3622 325,503.1322 325,500.3622 L325,495.3622 C325,494.2347 325.37508,492.2968 326,491.4622 C330.46327,482.35806 335.27824,474.33356 340,465.36216 L340,460.36216 L330,460.36216 L320,460.36216 L320,465.36216 L320,470.36216 L325,470.36216 L325,465.36216 L330,465.36216 L334.5,465.36216 C330.01127,473.27766 326.28169,480.93406 322,488.9622 C320.74988,490.6315 320,493.107 320,495.3622 L320,500.3622 C320,505.9022 324.46,510.3622 330,510.3622 Z" id="rect3163-52-9-8-1-38-8-0" fill="#FF5555"></path>
                <path d="M180,45.36218 C180,45.36218 186,60.36218 193,70.36218 C200,80.36218 210,90.36218 210,90.36218 C210,90.36218 200,100.36218 193,110.36218 C186,120.36218 180,135.36218 180,135.36218 C180,135.36218 174,120.36218 167,110.36218 C160,100.36218 150,90.36218 150,90.36218 C150,90.36218 160,80.36218 167,70.36218 C174,60.36218 180,45.36218 180,45.36218" id="path3204-24-04" fill="#FF5555"></path>
                <path d="M180,405.36218 C180,405.36218 186,420.36218 193,430.36218 C200,440.36218 210,450.36218 210,450.36218 C210,450.36218 200,460.36218 193,470.36218 C186,480.36218 180,495.3622 180,495.3622 C180,495.3622 174,480.36218 167,470.36218 C160,460.36218 150,450.36218 150,450.36218 C150,450.36218 160,440.36218 167,430.36218 C174,420.36218 180,405.36218 180,405.36218" id="path3204-24-1-83" fill="#FF5555"></path>
                <path d="M30,90.36218 C30,90.36218 33,97.86218 36.5,102.86218 C40,107.86218 45,112.86218 45,112.86218 C45,112.86218 40,117.86218 36.5,122.86218 C33,127.86218 30,135.36218 30,135.36218 C30,135.36218 27,127.86218 23.5,122.86218 C20,117.86218 15,112.86218 15,112.86218 C15,112.86218 20,107.86218 23.5,102.86218 C27,97.86218 30,90.36218 30,90.36218" id="path3204-24-1-7-0" fill="#FF5555"></path>
                <path d="M330,405.36218 C330,405.36218 333,412.86218 336.5,417.86218 C340,422.86218 345,427.86218 345,427.86218 C345,427.86218 340,432.86218 336.5,437.86218 C333,442.86218 330,450.36218 330,450.36218 C330,450.36218 327,442.86218 323.5,437.86218 C320,432.86218 315,427.86218 315,427.86218 C315,427.86218 320,422.86218 323.5,417.86218 C327,412.86218 330,405.36218 330,405.36218" id="path3204-24-1-4-1" fill="#FF5555"></path>
            </g>
        </g>
    </g>
</svg>

<svg width="360" height="540" xmlns="http://www.w3.org/2000/svg"><g transform="translate(0 -.362)" fill-rule="nonzero" fill="none"><rect stroke="#000" fill="#FFF" x=".5" y=".862" width="359" height="539" rx="29.944"/><path d="M30 30.362c-5.54 0-10 4.46-10 10v5h5v-5c0-2.77 2.23-5 5-5s5 2.23 5 5v5c0 1.128-.375 3.065-1 3.9-4.463 9.104-9.278 17.129-14 26.1v5h20v-10h-5v5h-9.5c4.489-7.915 8.218-15.572 12.5-23.6 1.25-1.67 2-4.145 2-6.4v-5c0-5.54-4.46-10-10-10zM330 510.362c5.54 0 10-4.46 10-10v-5h-5v5c0 2.77-2.23 5-5 5s-5-2.23-5-5v-5c0-1.127.375-3.065 1-3.9 4.463-9.104 9.278-17.128 14-26.1v-5h-20v10h5v-5h9.5c-4.489 7.916-8.218 15.572-12.5 23.6-1.25 1.67-2 4.145-2 6.4v5c0 5.54 4.46 10 10 10zM180 45.362s6 15 13 25 17 20 17 20-10 10-17 20-13 25-13 25-6-15-13-25-17-20-17-20 10-10 17-20 13-25 13-25M180 405.362s6 15 13 25 17 20 17 20-10 10-17 20-13 25-13 25-6-15-13-25-17-20-17-20 10-10 17-20 13-25 13-25M30 90.362s3 7.5 6.5 12.5 8.5 10 8.5 10-5 5-8.5 10-6.5 12.5-6.5 12.5-3-7.5-6.5-12.5-8.5-10-8.5-10 5-5 8.5-10 6.5-12.5 6.5-12.5M330 405.362s3 7.5 6.5 12.5 8.5 10 8.5 10-5 5-8.5 10-6.5 12.5-6.5 12.5-3-7.5-6.5-12.5-8.5-10-8.5-10 5-5 8.5-10 6.5-12.5 6.5-12.5" fill="#F55"/></g></svg>
